X:6614
T:Guillotine,The. WM.097
M:2/4
L:1/16
Q:100
S:Wm.Mittell
R:Reel
O:England
A:Kent
N:
D:
H:
Z:vmp.Chris Partington
W:Cross over 2nd couple lead up the middle cast off and turn the 3rd
W:couple
K:G
gdBd dcBA|Gbag gfed|gbag fafd|ged^c d2D2:|!
|:dGBd eceg|fdfa gdBG|egfe edBd|cAGF G2G2:|]
